justvector/facto.me.svg

<?xml version="1.0" encoding="iso-8859-1"?>
<!-- Generator: Adobe Illustrator 15.0.0, SVG Export Plug-In . SVG Version: 6.00 Build 0)  -->
<!DOCTYPE svg PUBLIC "-//W3C//DTD SVG 1.1//EN" "http://www.w3.org/Graphics/SVG/1.1/DTD/svg11.dtd">
<svg version="1.1" id="Layer_1" xmlns="http://www.w3.org/2000/svg" xmlns:xlink="http://www.w3.org/1999/xlink" x="0px" y="0px"
	 width="100px" height="100px" viewBox="0 0 100 100" style="enable-background:new 0 0 100 100;" xml:space="preserve">
<path id="Facto.me" d="M69.762,62.478l7.166-52h18.074l-13.711,52H69.762z M73.656,70.17c-5.594,0-10.127,4.478-10.127,10
	c0,5.523,4.533,10,10.127,10s10.127-4.477,10.127-10C83.783,74.647,79.25,70.17,73.656,70.17z M26.215,64.939h30.828l3.117-12.623
	H28.686l5.299-27.069h33.965l3.117-15.077H19.961L5.002,88.939H21.52L26.215,64.939z"/>
</svg>

<?xml version="1.0" encoding="UTF-8" standalone="no"?>
<!DOCTYPE svg PUBLIC "-//W3C//DTD SVG 1.1//EN" "http://www.w3.org/Graphics/SVG/1.1/DTD/svg11.dtd">
<svg width="100%" height="100%" viewBox="0 0 100 100" version="1.1" xmlns="http://www.w3.org/2000/svg" xmlns:xlink="http://www.w3.org/1999/xlink" xml:space="preserve" xmlns:serif="http://www.serif.com/" style="fill-rule:evenodd;clip-rule:evenodd;stroke-linejoin:round;stroke-miterlimit:2;">
    <path id="Facto.me" d="M69.762,62.478L76.928,10.478L95.002,10.478L102.016,62.562L69.762,62.478ZM73.656,70.17C68.062,70.17 63.529,74.648 63.529,80.17C63.529,85.693 68.062,90.17 73.656,90.17C79.25,90.17 83.783,85.693 83.783,80.17C83.783,74.647 79.25,70.17 73.656,70.17ZM26.215,64.939L57.043,64.939L60.16,52.316L28.686,52.316L33.985,25.247L67.95,25.247L71.067,10.17L19.961,10.17L-13.942,57.925L20.349,103.852L26.215,64.939Z" style="fill:rgb(0,220,255);fill-rule:nonzero;"/>
</svg>
